!!!OTL: Symphony No. 5 in E minor, Movement 2
!!!COM: Tchaikovsky
**kern	**dynam
*Trd-2c-3	*Trd-2c-3
*Iclars	*Iclars
*I"Clarinet 1 in A	*
*staff1	*staff1
*clefG2	*clefG2
*k[f#c#]	*k[f#c#]
*M12/8	*M12/8
=1-	=1-
1.r	.
=2	=2
1.r	.
=3	=3
1.r	.
=4	=4
1.r	.
=5	=5
1.r	.
=6	=6
1.r	.
=7	=7
1.r	.
=8	=8
1.r	.
=9	=9
1.r	.
=10	=10
1.r	.
=11	=11
1.r	.
=12	=12
1.r	.
=13	=13
1.r	.
=14	=14
1.r	.
=15	=15
1.r	.
=16	=16
!!LO:REH:t=A
(8F#/L	p
8G#/)	<
8A~/J	(
(8A/L	(
8B/)	(
8c#~/J	[
(4.c#/	>
4.c/	)
=17	=17
4.B/)	]
(8F#~/L	p
8G~/	<
8A~/J)	[
(4.A/	>
4.G/)	]
=18	=18
4.E/	<
(8E~/L	(
8F#~/	(
8G~/J)	[
(4.G/	>
[4.F#/	)
=19	=19
8F#/])	]
8r	.
8r	.
4r	.
8r	.
2.r	.
=20	=20
1.r	.
=21	=21
4.F#/	.
(8F#~/L	<
8G~/	(
8A~/J)	[
(4.A/	>
4.G/)	]
=22	=22
4.E/	<
(8E~/L	(
8F#~/	(
8G~/J)	[
(4.G/	>
[4.F#/	)
=23	=23
8F#/])	]
8r	.
8r	.
4r	.
8r	.
2.r	.
=24	=24
!!LO:TX:Z=10:b:t=Con moto
1.r	.
!!LO:MREST:break
=25	=25
!!LO:TX:Z=10:i:t=animato
1.r	.
=26	=26
1.r	.
=27	=27
1.r	.
=28	=28
2.r	.
4.f#	.
(4A#/	mf
8d#/)	.
=29	=29
(4.d/	>
4.c#/)	]
2.r	.
=30	=30
1.r	.
=31	=31
1.r	.
=32	=32
1.r	.
=33	=33
!!LO:TX:b:Z=10:t=Tempo I
2.r	.
4r	.
8r	.
(4.e/	p
=34	=34
4A/)	.
(8B/	.
4A^/)	.
(8B/	.
4A^/)	.
(8B/	.
4.A^/)	.
=35	=35
!!LO:TX:i:Z=10:t=animando
1.r	.
=36	=36
(8D/L	f
8F#/	.
8A/J	.
8d/)	.
8r	.
8r	.
4r	.
8r	.
!!LO:TX:i:Z=10:t=riten.
(8d/L	mf
8c#/)	.
8B~/J	.
=37	=37
!!LO:TX:i:Z=10:t=sostenuto
(4.d/	.
2.c#/)	.
(8A/L	<
8B/)	(
8c#~/J	[
=38	=38
(4.e/	>
2.d/)	]
8d~/L	f
8e~/	<
8f#~/J	[
=39	=39
!!LO:TX:Z=10:b:t=Poco pi&ugrave; animato
4.g#\	.
4g#\	.
8g#\	.
4.g#\	.
8d~/L	.
8e~/	.
8f#~/J	.
=40	=40
4.g#\	.
4g#\	.
8g#\	.
4.g#\	.
8g#~\L	ff
8a~\	.
8b~\J	.
=41	=41
4.b\	.
4b\	.
8b\	.
4.b\	.
8g#~\L	.
8a~\	.
8b~\J	.
=42	=42
4.b\	.
4b\	.
8b\	.
4.b\	.
4b\	.
8b\	.
=43	=43
!!LO:TX:Z=10:b:t=Tempo I
4b\	.
[8b\	.
8b\]	.
4b\	.
4b\	.
([8b\	.
4b\]	.
8a\)	.
=44	=44
4r	.
8r	.
2.a\	p
[4.a\	> ]
=45	=45
!!LO:REH:t=B
8a\]	pp
8r	.
8r	.
4r	.
8r	.
2.r	.
=46	=46
!!LO:TX:i:Z=10:t=animando
2.r	.
8cc#\L	mf
8cc#\	.
8cc#\J	.
8cc#\L	.
8cc#\	.
8cc#\J	.
=47	=47
8b\	.
8r	.
8r	.
4r	.
8r	.
2.r	.
=48	=48
!!LO:TX:i:Z=10:t=riten.
1.r	.
=49	=49
1.r	.
=50	=50
!!LO:TX:i:Z=10:t=animando
2.r	.
8cc#\L	mp
8cc#\	.
8cc#\J	.
8cc#\L	.
8cc#\	.
8cc#\J	.
=51	=51
8b\	.
8r	.
8r	.
4r	.
8r	.
8dd\L	mf
8dd\	.
8dd\J	.
8dd\L	.
8dd\	.
8dd\J	.
=52	=52
!!LO:REH:t=C
!!LO:TX:b:Z=10:t=Poco pi&ugrave; mosso
!LO:TX:i:Y=20:t=cresc. poco a poco	!
8ee\L	.
8ee\	.
8ee\J	.
8ee\L	.
8ee\	.
8ee\J	.
8ee#\L	.
8ee#\	.
8ee#\J	.
8ee#\L	.
8ee#\	.
8ee#\J	.
=53	=53
8ff#\L	.
8ff#\	.
8ff#\J	.
8ff#\L	.
8ff#\	.
8ff#\J	.
8ff#\L	.
8ff#\	.
8ff#\J	.
8ff#\L	.
8ff#\	.
8ff#\J	.
=54	=54
8ff#\L	.
8ff#\	.
8ff#\J	.
8ff#\L	.
8ff#\	.
8ff#\J	.
8bb\L	.
8bb\	.
8bb\J	.
8aa#\L	.
8aa#\	.
8aa#\J	.
=55	=55
8aa#\L	.
8aa#\	.
8aa#\J	.
8aa#\L	.
8aa#\	.
8aa#\J	.
8bb\L	.
8bb\	.
8bb\J	.
8bb\L	.
8bb\	.
8bb\J	.
=56	=56
!!LO:TX:b:Z=10:t=Tempo I
8bb\L	fff
8bb\	.
8bb\J	.
8dd\L	.
8dd\	.
8ff\J	.
8gg\L	>
8gg\	)
8gg\J	)
8gg\L	)
8gg\	)
8gg\J	]
=57	=57
!!LO:TX:Z=10:i:t=animando
8gg\L	ff
8gg\	>
8gg\J	)
8b\L	)
8b\	)
8dd\J	)
8ee\L	)
8ee\	)
8ee\J	)
8ee\L	)
8ee\	)
8ee\J	]
=58	=58
8ee\L	f
8ee\	.
8ee\J	.
8g\L	.
8g\	.
8g\J	.
!!LO:TX:Z=10:i:t=riten.
4.g\	>
4.g#\	)
=59	=59
!!LO:TX:Z=10:b:t=Pi&ugrave; animato
4.a\	]
4r	.
8r	.
2.r	.
=60	=60
!!LO:TX:Z=10:i:t=riten.
1.r	.
!!LO:MREST:break
=61	=61
!!LO:TX:Z=10:b:t=Poco meno
1.r	.
=62	=62
1.r	.
=63	=63
1.r	.
=64	=64
1.r	.
=65	=65
1.r	.
=66||	=66||
*M4/4	*M4/4
*met(c)	*met(c)
!!LO:TX:Z=10:b:t=Moderato con anima
1r	.
=67	=67
4.cc#\	mf <
(8gg#\	[
8bb\L	>
8aa\)	)
8gg#~\	)
8ff#~\J	]
=68	=68
4ee^\	.
(36dd\LLL	.
36ee\	.
36dd\	.
36ee\	.
36dd\	.
36ee\	.
36dd\	.
36ee\	.
36dd\JJJ	.
2cc#\)	.
=69	=69
([4b^\	.
16b\LL]	.
16cc#\	.
16dd\	.
16ff#\JJ)	.
2cc#\	.
=70	=70
([4b^\	.
16b\LL]	.
16cc#\	.
16dd\	.
16gg#\JJ)	.
2cc#\	.
=71	=71
1r	.
=72	=72
1r	.
=73	=73
1r	.
=74	=74
1r	.
!!LO:MREST:break
=75	=75
!!LO:REH:t=D
1r	.
=76	=76
1r	.
=77	=77
2r	.
8cc#\	mf
4cc#\	.
(8cc#\	.
=78	=78
8g#\L)	<
(8g#\J	(
8b#\L	(
8cc#\J)	[
8r	.
(8d#/	mf
8f#/L)	.
8f#/J	.
=79	=79
1r	.
=80	=80
8cc#\	mf
4cc#\	.
(8cc#\	.
8b#\)	.
4b#\	.
[8b#\	.
=81	=81
8b#\L]	.
(8b#\	.
8cc#\)	.
(8cc#\J	.
8dd#\)	.
4dd#\	.
(8dd#\	.
=82	=82
8a#\L)	.
(8a#\	.
8cc##\	.
8dd#\J)	.
8r	.
(8e#/L	mf
8g#/)	.
8g#/J	.
=83	=83
!!LO:REH:t=E
1r	.
=84	=84
4.g#\	f <
(8dd#\	(
8ff#\L	[
8ee#\)	>
8dd#~\	)
8cc##~\J	]
=85	=85
4cc#^\	.
(36b\LLL	.
36cc#\	.
36b\	.
36cc#\	.
36b\	.
36cc#\	.
36b\	.
36cc#\	.
36b\JJJ	.
8a#\)	.
8r	.
(8dd#\L	.
8cc##\J)	.
=86	=86
4cc#^\	.
(36b\LLL	.
36cc#\	.
36b\	.
36cc#\	.
36b\	.
36cc#\	.
36b\	.
36cc#\	.
36b\JJJ	.
4a#\)	.
(8cc##\L	.
8ee#\J)	.
=87	=87
1r	.
=88	=88
4.A#/	mf <
(8B/	(
8d#/L	[
8c#/)	>
8B~/	)
8A#~/J	]
=89	=89
8A^/L	f
8A/	.
8A/	.
8A/J	.
8G#/L	.
8G#/	.
8G#/	.
8G#/J	.
=90	=90
4.dd#\	f <
(8ee\	(
8gg#\L	[
8ff#\)	>
8ee~\	)
8dd#~\J	]
=91	=91
!!LO:REH:t=F
1r	.
=92	=92
1r	.
=93	=93
(2A^/	f
2G#/)	.
=94	=94
(2A^/	.
2G#/)	.
=95	=95
4.G#/	f
!LO:TX:i:t=cresc.	!
(8d#/	.
8f#/L	.
8e/	.
8d#/	.
8c#/J)	.
=96	=96
!!LO:TX:i:Z=10:t=stringendo
(8b\L	.
8a\	.
8g#\	.
8f#\J)	.
(8A#/L	.
8B#/	.
8c#/	.
8d#/J)	.
=97	=97
(8e/L	fff
8e#/	.
8f#/	.
8g#/J)	.
(8a\L	.
8a#\	.
8b\	.
8cc#\J)	.
=98	=98
(8b\L	.
8a\	.
8g#\	.
8f#\J)	.
(8e/L	.
8B/	.
8A/	.
8G#/J)	.
=99	=99
!!LO:TX:b:Z=10:t=Tempo precedente
4.A/	fff
16A/LL	.
16A/JJ	.
4.B/	.
16A/LL	.
16G#/JJ	.
=100	=100
8A/L	.
8A/J	.
4r	.
2r	.
=101	=101
4.A/	.
16A/LL	.
16A/JJ	.
4.B/	.
16A/LL	.
16G#/JJ	.
=102	=102
8A/L	.
8A/J	.
4r	.
4r	.
4e/	.
=103	=103
4e/	.
4e/	.
4A/	.
4B/	.
=104	=104
8A/L	.
8A/J	.
4r	.
4r	.
4e/	.
=105	=105
4e/	.
4e/	.
4A/	.
4B/	.
=106	=106
8A/L	.
8A/J	.
4r	.
4r	.
8A/	.
8r	.
=107	=107
4r	.
8A/	.
8r	.
4r	.
8A/	.
8r;	.
=108||	=108||
*M4/4	*M4/4
*met(c)	*met(c)
1r	.
=109	=109
1r	.
=110	=110
1r	.
=111	=111
1r	.
=112	=112
1r	.
=113	=113
1r	.
=114	=114
1r	.
=115	=115
1r	.
=116	=116
!!LO:REH:t=G
!!LO:TX:i:Z=10:t=animando
(16G/LL	mf
16F#/	.
16G/	.
16E/JJ)	.
[4e/	.
16e/LL]	<
(16f#/	(
16g/	(
16g#/JJ	(
[4a\	(
=117	=117
16a\LL])	(
(16a#\	(
16b\	(
16cc#\JJ	(
[4dd\	[
16dd\LL])	f
16ee\	.
16ff#\	.
16gg\JJ	.
(16aa\LL	.
16gg#\	.
16gg\	.
16ff#\JJ)	.
=118	=118
(4ff#\	.
8ee#\L)	.
8b\J	.
!!LO:TX:Z=10:i:t=riten.
(4dd^\	.
[4cc#\	.
=119	=119
*M12/8	*M12/8
!!LO:TZ:Z=10:i:t=sostenuto
8cc#\])	.
8r	.
8r	.
(8b#\L	f
8dd\	.
8cc#\J)	.
4.cc#\	> ]
4r	.
8r	.
=120	=120
*M4/4	*M4/4
*met(c)	*met(c)
(16B/LL	mf
16c#/)	<
16d#~/	(
16e~/JJ	(
16f#~\LL	(
16g~\	(
16g#~\	[
16a~\JJ	(
(16a\LL	.
16g\	.
16f#\	.
16a\JJ	.
8g\)	.
16r	.
(16B/	mf
=121	=121
16A/LL	.
16B/)	<
16c~/	(
16d~/JJ	(
16e~/LL	(
16f~/	(
16f#~/	(
16g~/JJ	[
(16g/LL	.
16f#/	.
16e#/	.
16g/JJ	.
8f#/)	.
8r	.
=122	=122
!!LO:TX:i:Z=10:t=animando
16r	.
(16G#/LL	f
16A/	.
16G#/JJ)	.
16r	.
(16A/LL	.
16B/	.
16A/JJ)	.
16r	.
(16B/LL	.
16c#/	.
16B/JJ)	.
16r	.
(16c#/LL	.
16d/	.
16c#/JJ)	.
=123	=123
!!LO:TX:i:Z=10:t=sostenuto
16r	.
(16d/LL	.
16e/	.
[16d/JJ	.
16d/LL])	.
16c#/	.
16B/	.
16B-/JJ	.
(16A/LL	>
16g/)	)
16f#/	)
16e/JJ	)
(16d/LL	)
16c#/)	)
16B/	)
16A/JJ	]
=124	=124
!!LO:REH:t=H
(16B/LL	mf
16c#/)	<
16d~/	(
16e~/JJ	(
16f#~\LL	(
16g~\	(
16g#~\	[
16a~\JJ	.
(16a\LL	.
16g\	.
16f#\	.
16a\JJ	.
8g\)	.
16r	.
(16B/	mf
=125	=125
16A/LL	.
16B/)	.
16c~/	<
16d~/JJ	(
16e~/LL	(
16f~/	(
16f#~/	(
16g~/JJ	[
(16g/LL	.
16f#/	.
16e#/	.
16g/JJ	.
8f#/)	.
8r	.
=126	=126
!!LO:TX:i:Z=20:t=animando
16r	.
(16g#\LL	mf
16a\	.
16g#\JJ)	.
16r	.
!LO:TX:i:Y=20:t=cresc.	!
(16a\LL	.
16b\	.
16a\JJ)	.
16r	.
(16b\LL	.
16cc#\	.
16b\JJ)	.
16r	.
(16cc#\LL	.
16dd\	.
16cc#\JJ)	.
=127	=127
16r	.
(16dd\LL	f
16ee\	.
16dd\JJ)	.
16r	.
(16dd\LL	.
16ee\	.
16dd\JJ)	.
16r	.
!!LO:TX:i:Z=10:t=riten.
(16dd\LL	.
16b\	.
16cc#\JJ)	.
!LO:TX:i:Y=20:t=cantabile	!
(12dd\L	f
12cc#\)	.
12b~\J	.
=128	=128
!!LO:TX:Z=20:b:t=Pi&ugrave; mosso
*M12/8	*M12/8
(4.dd^\	.
2.cc#\)	.
(8a\L	<
8b\)	(
8cc#~\J	[
=129	=129
(4.ee\	>
2.dd\)	]
8dd~\L	<
8ee~\	(
8ff#~\J	[
=130	=130
4.gg\	f
4gg\	.
8gg\	.
!LO:TX:Z=20:i:t=cresc.	!
[4.gg\	.
4gg\]	.
8gg\	.
=131	=131
(8.gg\L	.
8.ff#\J)	.
8.bb\L	ff
8.aa\J	.
!LO:TX:i:Y=20:t=dim.	!
(8gg\L	.
8ff#~\)	.
8ee~\J	.
8dd~\L	.
8cc#~\	.
8b~\J	.
=132	=132
(4.dd^\	f
2.cc#\)	.
(8a\L	<
8b\)	(
8cc#~\J	[
=133	=133
(4.ee\	> ]
2.dd\)	<
8dd~\L	(
8ee~\	(
8ff#~\J	[
=134	=134
!!LO:TX:b:Z=10:t=Un poco pi&ugrave; animato
4.g#\	f
4g#\	.
8g#\	.
4.g#\	.
8dd~\L	.
8ee~\	.
8ff#~\J	.
=135	=135
4.g#\	.
4g#\	.
8g#\	.
4.g#\	.
8gg#~\L	ff
8aa~\	.
8bb~\J	.
=136	=136
4.dd\	.
4.dd\	.
4.dd\	.
8gg#~\L	.
8aa~\	.
8bb~\J	.
=137	=137
4.dd\	.
4.dd\	.
8dd\	.
4b\	.
4b\	.
[8b\	.
=138	=138
!!LO:REH:t=I
8b\]	.
4b\	.
4b\	.
[8b\	.
8b\]	.
4b\	.
4b\	.
[8b\	.
=139	=139
8b\]	.
4b\	.
4b\	.
[8b\	.
8b\]	.
4b\	.
4b\	.
[8b\	.
=140	=140
8b\]	.
!!LO:TX:i:Z=10:t=riten.
4gg\	.
4ee\	.
[8dd\	.
8dd\]	.
4cc#\	.
4b\	.
8a\	.
=141	=141
8A#/L	.
8B/	.
8c#/J	.
8d/L	.
8d#/	.
8e/J	.
8f#\L	.
8g\	.
8a\J	.
8a#\L	.
8b\	.
8cc#\J	.
=142	=142
!!LO:TX:b:Z=40:t=Andante mosso
*M4/4	*M4/4
*met(c)	*met(c)
16aa\LL	ff
16ff#\	.
16ff#\	.
16ff#\JJ	.
16ff#\LL	.
16ff#\	.
16ff#\	.
16ff#\JJ	.
16ee\LL	.
16ee\	.
16ee\	.
16ee\JJ	.
16ff#\LL	.
16ff#\	.
16gg\	.
16gg\JJ	.
=143	=143
16dd\LL	.
16dd\	.
16b\	.
16b\JJ	.
16b\LL	.
16b\	.
16dd\	.
16dd\JJ	.
!LO:TX:i:Y=20:t=cresc.	!
16cc#\LL	.
16cc#\	.
16cc#\	.
16cc#\JJ	.
16cc#\LL	.
16cc#\	.
16cc#\	.
16cc#\JJ	.
=144	=144
!!LO:TX:i:Z=10:t=animando
16ee#\LL	.
16ee#\	.
16ee#\	.
16ee#\JJ	.
16ee#\LL	.
16ee#\	.
16ee#\	.
16ee#\JJ	.
16dd\LL	ff
16dd\	.
16ff#\	.
16ff#\JJ	.
16ff#\LL	.
16ff#\	.
16ff#\	.
16ff#\JJ	.
=145	=145
16gg\LL	.
16gg\	.
16ff#\	.
16ff#\JJ	.
16ee\LL	.
16ee\	.
16ee\	.
16ee\JJ	.
!!LO:TX:i:Z=10:t=riten.
16ee\LL	.
16ee\	.
16ee\	.
16ee\JJ	.
16gg\LL	.
16gg\	.
16gg\	.
16gg\JJ	.
=146	=146
16ff#\LL	ff
16ff#\	.
16ff#\	.
16ff#\JJ	.
16ff#\LL	.
16ff#\	.
16ff#\	.
16ff#\JJ	.
16ee\LL	.
16ee\	.
16ee\	.
16ee\JJ	.
16ff#\LL	.
16ff#\	.
16gg\	.
16gg\JJ	.
=147	=147
!!LO:TX:i:Z=20:t=animando un poco
16dd\LL	.
16dd\	.
16b\	.
16b\JJ	.
16b\LL	.
16b\	.
16dd\	.
16dd\JJ	.
!LO:TX:i:Y=20:t=cresc.	!
16cc#\LL	.
16cc#\	.
16cc#\	.
16cc#\JJ	.
16cc#\LL	.
16cc#\	.
16cc#\	.
16cc#\JJ	.
=148	=148
16ee#\LL	.
16ee#\	.
16ee#\	.
16ee#\JJ	.
16ee#\LL	.
16ee#\	.
16ee#\	.
16ee#\JJ	.
16dd\LL	.
16dd\	.
16dd\	.
16dd\JJ	.
16dd\LL	.
16dd\	.
16dd\	.
16dd\JJ	.
=149	=149
*M12/8	*M12/8
(4.f#/	fff
4g\)	.
8g\	.
(4.g\	.
4g#\)	.
8g#\	.
=150	=150
(8.g#\L	.
8.a\J)	.
8.a\L	.
8.a\J	.
(8.a#\L	.
8.a\J)	.
8.a\L	.
8.a\J	.
=151	=151
!!LO:REH:t=K
(4.a#\	.
4b\)	.
8b\	.
(4.b\	.
4cc\)	.
8cc\	.
=152	=152
(8.cc\L	.
8.cc#\J)	.
8.cc#\L	.
8.cc#\J	.
(8.cc#\L	.
8.dd\J)	.
8.dd\L	.
8.dd\J	.
=153	=153
!!LO:TX:Z=10:b:t=Molto pi&ugrave; andante
*M4/4	*M4/4
*met(c)	*met(c)
4dd\	ffff
(8f#\L	.
8b\J)	>
2a\	]
=154	=154
4b\	ff
!!LO:TX:i:Z=10:t=animando
(8d/L	.
8g/J)	>
2f#/	]
=155	=155
16g\LL	f
16ee\	.
16ee\	.
(16ee\JJ	.
6b\	.
12cc#\)	>
!!LO:TX:i:Z=10:t=riten.
[2dd\	]
=156	=156
!!LO:TX:b:Z=10:t=Pi&ugrave; animato
4dd\]	mf
4r	.
2r	.
=157	=157
!!LO:TX:i:Z=10:t=riten.
1r	.
=158||	=158||
*M4/4	*M4/4
*met(c)	*met(c)
!!LO:TX:b:Z=10:t=Allegro non troppo
(8ee\L	fff
8dd\J)	.
4r	.
2r	.
=159	=159
4r	.
2.f/	.
=160	=160
1r	.
=161	=161
4r	.
2.b\	.
=162	=162
(4.b\	.
8dd\)	.
(4.ff\	.
8bb\)	.
=163	=163
4.b\	.
8dd\	.
4b\	.
(8dd\L	.
8ff\J)	.
=164	=164
12bb-\L	fff
12bb-\	.
12bb-\J	.
12bb-\L	.
12bb-\	.
12bb-\J	.
8bb-^\L	.
8bb-^\J	.
8bb-^\L	.
8bb-^\J	.
=165	=165
8dd^\L	.
8dd^\J	.
4r	.
4r	.
!!LO:TX:i:Z=10:t=riten.
(4dd\	mf
=166	=166
4cc^\	.
4b-\)	.
4r	.
(4b-\	p
=167	=167
4a^\	.
4g\)	.
4r	.
(4d/	pp
=168	=168
4e/	< [
4f#/)	.
(4a\	>
[4g\	]
=169	=169
2.g\])	.
4b-\	pp
=170||	=170||
*M12/8	*M12/8
!!LO:TX:b:Z=20:t=Tempo I
[4.b-^\	.
4b-\_	.
16b-\LL]	.
16a\JJ	.
[4.a\	pp >
8a\]	]
8r	.
8r	.
=171	=171
1.r	.
=172	=172
1.r	.
=173	=173
8a\L	pp
8a\	.
8a\J	.
8a\L	.
8a\	.
8a\J	<
8cc#\L	(
8cc#\	(
8cc#\J	(
8cc#\L	(
8cc#\	(
8cc#\J	[
=174	=174
8dd\L	>
8dd\	)
8dd\J	)
8a\L	]
8a\	.
8a\J	.
8b-\L	<
8b-\	(
8b-\J	(
8b-\L	(
8b-\	(
8b-\J	[
=175	=175
8a\L	>
8a\	)
8a\J	)
8a\L	)
8a\	)
8a\J	]
8cc#\L	<
8cc#\	(
8cc#\J	(
8cc#\L	(
8cc#\	(
8cc#\J	[
=176	=176
8dd\L	>
8dd\	)
8dd\J	)
8a\L	)
8a\	]
8a\J	<
8b-\L	(
8b-\	(
8b-\J	(
8b-\L	(
8b-\	(
8b-\J	[
=177	=177
8a\	.
8r	.
8r	.
4r	.
8r	.
(2.G/	pp
=178	=178
8A/)	.
8r	.
8r	.
4r	.
8r	.
(2.G/	.
=179	=179
8A/)	.
8r	.
8r	.
4r	.
8r	.
2.r	.
=180	=180
1.r	.
=181	=181
1.r	.
=182	=182
*M4/4	*M4/4
*met(c)	*met(c)
4r	.
8r	.
!	!LO:DY:X=-40
(8D/	ppp
8F#/L	<
8A/	(
8d/	(
8f#/J)	[
!!LO:TX:i:Z=10:t=riten. molto
=183	=183
*M12/8	*M12/8
[4.e/	>
4e/_	)
16e/LL]	)
16d/JJ	]
[2.d/	pp >
=184	=184
2.d/_	]
8d/]	ppp
8r	.
8r	.
4r	.
8r;	.
==	==
*-	*-
!!muse2ps: =z21u^transposed score^
